X: 5
T: Ridée Six Temps
R: three-two
M: 3/2
L: 1/8
K: Bmin
| Bf | fB f2 ef | gf ed cB | cd ef ed | ce dc Bf |
fB f2 ef | gf ed c2 | cd ef e2 | ce dc ||

B2 | fB cd B2 | gB cd B2 | AB cd ed | ce dc cB | 
fB cd B2 | gB cd B2 | AB cd e2 | ce dc B2 ||

